icons/circleci-dark.svg

<svg width="256" height="256" viewBox="0 0 256 256" fill="none" xmlns="http://www.w3.org/2000/svg">
<rect width="256" height="256" rx="60" fill="#282828" />
<path d="M38.1276 105.991C48.2493 66.9119 84.2279 38 127.139 38C177.833 38 219 78.46 219 128.376C219 178.292 177.875 218.751 127.139 218.751C84.2279 218.751 48.2493 189.84 38.1276 150.76C38.0425 150.467 38 150.175 38 149.882C38 147.497 39.9563 145.572 42.3804 145.572H79.4222C81.1663 145.572 82.6969 146.618 83.3773 148.083C90.9474 164.359 107.661 175.698 127.097 175.698C153.634 175.698 175.196 154.526 175.196 128.376C175.196 102.267 153.677 81.0542 127.097 81.0542C107.704 81.0542 90.9903 92.3929 83.3773 108.669C82.6969 110.133 81.1663 111.179 79.4222 111.179H42.3804C39.9563 111.179 38 109.255 38 106.87C38 106.577 38.0425 106.284 38.1276 105.991ZM127.097 106.87C115.018 106.87 105.237 116.493 105.237 128.376C105.237 140.259 115.018 149.882 127.097 149.882C139.175 149.882 148.956 140.259 148.956 128.376C148.956 116.493 139.175 106.87 127.097 106.87Z" fill="#F4F2ED" />
<path d="M42.3804 145.572H79.4222C81.1663 145.572 82.6969 146.618 83.3773 148.083C90.9474 164.359 107.661 175.698 127.097 175.698C153.634 175.698 175.196 154.526 175.196 128.376C175.196 102.267 153.677 81.0542 127.097 81.0542C107.704 81.0542 90.9903 92.3929 83.3773 108.669C82.6969 110.133 81.1663 111.179 79.4222 111.179H42.3804C39.9563 111.179 38 109.255 38 106.87C38 106.577 38.0425 106.284 38.1276 105.991C48.2493 66.9119 84.2279 38 127.139 38C177.833 38 219 78.46 219 128.376C219 178.292 177.875 218.751 127.139 218.751C84.2279 218.751 48.2493 189.84 38.1276 150.76C38.0425 150.467 38 150.175 38 149.882C38 147.497 39.9563 145.572 42.3804 145.572Z" fill="#F4F2ED" />
</svg>

<svg xmlns="http://www.w3.org/2000/svg" width="256" height="256" fill="none"><rect width="256" height="256" fill="#282828" rx="60"/><path fill="#F4F2ED" d="M38.128 105.991C48.249 66.911 84.228 38 127.139 38 177.833 38 219 78.46 219 128.376s-41.125 90.375-91.861 90.375c-42.911 0-78.89-28.911-89.011-67.991a3.1 3.1 0 0 1-.128-.878c0-2.385 1.956-4.31 4.38-4.31h37.042a4.39 4.39 0 0 1 3.955 2.511c7.57 16.276 24.284 27.615 43.72 27.615 26.537 0 48.099-21.172 48.099-47.322 0-26.109-21.519-47.322-48.099-47.322-19.393 0-36.107 11.339-43.72 27.615a4.39 4.39 0 0 1-3.955 2.51H42.38c-2.424 0-4.38-1.924-4.38-4.309q0-.44.128-.879m88.969.879c-12.079 0-21.86 9.623-21.86 21.506s9.781 21.506 21.86 21.506 21.859-9.623 21.859-21.506-9.781-21.506-21.859-21.506"/><path fill="#F4F2ED" d="M42.38 145.572h37.042a4.39 4.39 0 0 1 3.955 2.511c7.57 16.276 24.284 27.615 43.72 27.615 26.537 0 48.099-21.172 48.099-47.322 0-26.109-21.519-47.322-48.099-47.322-19.393 0-36.107 11.339-43.72 27.615a4.39 4.39 0 0 1-3.955 2.51H42.38c-2.424 0-4.38-1.924-4.38-4.309q0-.44.128-.879C48.249 66.911 84.228 38 127.139 38 177.833 38 219 78.46 219 128.376s-41.125 90.375-91.861 90.375c-42.911 0-78.89-28.911-89.011-67.991a3.1 3.1 0 0 1-.128-.878c0-2.385 1.956-4.31 4.38-4.31"/></svg>
